X:120
T:Inte sörjer jag
T:(Sv. L. Sm. 120) 
R:Polska
Z:Jonas Brunskog, 4/9 2008
O:Tolg, Småland
D:[[Grupper/Sågskära]] - Krook
S:efter Johan August Pettersson
B:Svenska Låtar Småland
N:Sv. L. Sm. 120
M:3/4
L:1/8
K:Am
|:EA AA GG|AA GA B2|BB eB/B/ c2|{GA}BA GG A2:|
w:Inte sörj-er jag för mina barn e små, fem-ton ligg-er i vagg-an och -- fem-ton var jag går.
|:c(B c)(d e2)|{ef}e2 B2 d2|e2 AA cc|BB GG A2:|

